X: 15
M: 4/4
L: 1/8
K: G
|: ef | g2 (3fgf e2d2 | eaa^g a2e<f | g2 (3fgf e2d2 | [b2d2][a2c2] [g2B2] (3def |
| g2 (3fgf e2d2 | eaa^g a2ef | gefa e2d2 | "d."BdAF G2 :|
P: VAR:
"a."A3c || "b."BA || "c."Ad || "d"bc |] y8 y8 y8 y8 y8 y8


